X:64
T:Ghost Story
C:
N:From the Hull and Larson CD "Double Cappuccino" Transcribed and arranged for mandolin by Mike Stangeland
L:1/8
Q:1/4=120
M:4/4
K:Bb
z8 | "Gm"z8 | "Gm7"z8 | "Cm"z8 | "D7"z8 | z7/1_A, |: "Gm"G,B, DG (3"D+"_GGG G_A, | 
"Bb"G,B, DF "C7"(3=EEE ED | "Eb"ED E(3F2 (3G2F2 E2 | "D7"DC [DD][DD] z3_A, | "Gm"G,B, DG "D+"_G3_A, | 
"Bb"G,B,2D/F/ "C7"=E3D | "Eb"ED EF "F"{_G}=GF C_D |1 (3B,B,"Bb"B, (3B,B,B, "D7"A,3_A, :|2 (3B,B,"Bb"B, (3B,B,B, "D7"A,3=B, |] 
"Cm7"CE GB "F7"AF2D/E/ | "Bb"FD B,/A,/G,2A, B,=B, | "Eb"CE GB "F"AF DE | (3"Bb"FFF (3"F"FFF (3"Bb"FFF (3FFF | 
"A"A,_D "E7"=EA "A"z(3A/B/A/ GE | "Dm"(3F=ED "Am"EC "Dm"DE F_G | {_G}"G7"=G{_G}=G2C2C D=E | 
(3"F"F2=E2 _E2 (3"D7"D2=E2 _G2 | "Gm"{_G}=GB dg (3"D+"_ggg g_G | "Bb"GB df (3"C7"=eee ed | 
"Eb"ed e(3f2 (3g2f2 e2 | "D7"(3ddd (3ddd c3_G | "Gm"GB dg (3"D+"_ggg g_G | "Bb"GB2d/(3f (3"C7"=eee ed | 
"Eb"ed ef {_g}"F"=gf c_d | "Bb"(3BBB (3BBB "D7"A2 B,A, | "Bb"(3BBB (3BBB "D7"A3D | 
"Eb"ED EF "F"{_G}=GF C_D | "Bb"[d8F8B,8] | 


